!!!COM: Bach, Johann Sebastian
!!!OTL: 273. Ein' feste Burg ist unser Gott
!!!ONM: No. 273
!!!OCL: Erk
!!!SCA: BWV 80.8
!!!YOE: Riemenschneider, Albert
!!!OPR: 371 Harmonized Chorales and 69 Chorale Melodies with Figured Bass
!!!OPT: Bach Chorale Harmonizations
!!!ONB: From the end of Cantata 80.
**harm	**root	**kern	**kern	**kern	**kern
!	!	!bass	!tenor	!alto	!sprno
*Iorgan	*Iorgan	*Iorgan	*Iorgan	*Iorgan	*Iorgan
*>[A,A,B]	*>[A,A,B]	*>[A,A,B]	*>[A,A,B]	*>[A,A,B]	*>[A,A,B]
*>norep[A,B]	*>norep[A,B]	*>norep[A,B]	*>norep[A,B]	*>norep[A,B]	*>norep[A,B]
*>A	*>A	*>A	*>A	*>A	*>A
*k[f#]	*k[f#]	*k[f#]	*k[f#]	*k[f#]	*k[f#]
*G:	*G:	*G:	*G:	*G:	*G:
*met(c)	*met(c)	*met(c)	*met(c)	*met(c)	*met(c)
*M4/4	*M4/4	*M4/4	*M4/4	*M4/4	*M4/4
*MM60	*MM60	*MM60	*MM60	*MM60	*MM60
I	4DD	8g	8b	4dd	4gg
.	.	8f#	8a	.	.
=1	=1	=1	=1	=1	=1
vi7	4BB	4e	8g	8dd	4gg
.	.	.	8a	8cc	.
Ic	4DD	8d	8b	8b	4gg
.	.	8c	8cc	8a	.
Ib	8DD	8B	4dd	4g	8dd
IV	8GG	8c	.	.	8ee
viib	4CC#	8B	4cc	4a	4ff#
.	.	8A	.	.	.
=2	=2	=2	=2	=2	=2
Ib	8DD	4B	4b	8d	8gg
iii	8FF#	.	.	4dd	8ff#
V/V	4EE	4A	8e	.	4ee
.	.	.	8a	8cc#	.
V;	4AA;	4D;	4f#;	4a;	4dd;
vi	4BB	4E	8B	4ee	4gg
.	.	.	8c#	.	.
=3	=3	=3	=3	=3	=3
Vb	4AA	8F#	4d	8a	4ff#
.	.	8G	.	8b	.
ii	4EE	4A	8a	4cc	4ee
.	.	.	8g	.	.
iii	4FF#	4B	4f#	8b	4dd
.	.	.	.	8a	.
IV	8GG	8c	8e	8g	8ee
V	8AA	8d	8f#	8f#	8dd
=4	=4	=4	=4	=4	=4
IVb	4GG	8e	4g	4e	8cc
.	.	8c	.	.	8b
V	4AA	8d	8d	4f#	4a
.	.	8D	8c	.	.
I;	4DD;	4G;	4B;	4d;	4g;
=:|!	=:|!	=:|!	=:|!	=:|!	=:|!
*>B	*>B	*>B	*>B	*>B	*>B
!! Repeat from the beginning.
!! Continuing.
I	4DD	8G	8B	4g	4g
.	.	8A	8c	.	.
=5	=5	=5	=5	=5	=5
iii	4FF#	4B	8d	8f#	4dd
.	.	.	8g	8b	.
Vb/V	4EE	4c#	8f#	4a	4ee
.	.	.	8e	.	.
V	4AA	8d	4f#	8a	4dd
.	.	8G	.	8b	.
V/V	4EE	4A	4e	4a	4cc#
=6	=6	=6	=6	=6	=6
!!linebreak: 2
V;	2AA;	2D;	2f#;	2a;	2dd;
vi	4BB	4E	8B	4g	4g
.	.	.	8c	.	.
Ib	4DD	4B	4d	8g	4dd
.	.	.	.	8f	.
=7	=7	=7	=7	=7	=7
IV	4GG	4c	4g	8e	4ee
.	.	.	.	8g	.
viib	4CC#	4A	4a	4cc	4ff#
I;	4DD;	4G;	4d;	4b;	4gg;
iii	4FF#	4B	4d	4b	4ff#
=8	=8	=8	=8	=8	=8
vi7	4BB	4E	8d	4b	4gg
.	.	.	8c#	.	.
Vb	4AA	4F#	4d	8a	4ff#
.	.	.	.	8dd	.
vi7b	4BB	4G	4d	4b	2ee
V/V	4EE	4A	4c#	8a	.
.	.	.	.	8g	.
=9	=9	=9	=9	=9	=9
V;	4AA;	4D;	4A;	4f#;	4dd;
ii	4EE	8A	8c	4a	4ee
.	.	8B	8d	.	.
IV	4GG	4c	8e	8g	4ee
.	.	.	8f#	8a	.
I	4DD	4G	8g	4b	4dd
.	.	.	8f	.	.
=10	=10	=10	=10	=10	=10
Vb/ii	4BB	4G#	4e	4b	8ee
.	.	.	.	.	8dd
ii	4EE	4A	4e	8b	4cc
.	.	.	.	8a	.
VI;	4BB;	4E;	4e;	4g#;	4b;
vi	4BB	4E	8e	4b	4gg
.	.	.	8d	.	.
=11	=11	=11	=11	=11	=11
viib	4CC#	8A	8c	4a	4ff#
.	.	8B	8d	.	.
IV	8GG	8c	4e	8g	4ee
ii	8EE	8A	.	8cc	.
V7b	8AA	8F#	8a	8cc	4dd
V	8AA	8D	8f#	16b	.
.	.	.	.	16a	.
I	4DD	8G	4g	4b	8ee
.	.	8F#	.	.	8dd
=12	=12	=12	=12	=12	=12
IVb	8GG	8E	4g	8cc	8cc
IV7	8GG	8C	.	8e	8b
V	4AA	4D	8d	4f#	4a
.	.	.	8c	.	.
I;	4DD;	4GG;	4B;	4d;	4g;
==	==	==	==	==	==
*-	*-	*-	*-	*-	*-
!!!CDT: 1685/3//-1750/7/28
!!!OCY: Deutschland
!!!AGN: chorale
!!!AST: Baroque
!!!AIN: vox
!!!YOY: 1941
!!!PPP: New York; London
!!!PPR: G. Schirmer
!!!ENC: David Huron
!!!EED: David Huron
!!!YEN: United States of America
!!!YER: 1992
!!!YEC: Copyright 1992 David Huron
!!!YEM: Rights to all derivative electronic formats reserved.
!!!YER: March 20, 1996
!!!AMT: simple quadruple
!!!EEV: 1.1
!!chor2scor: -l 2 -s 0.6 -o %b.pmx
